icons/linear-ele-other-bangzhu-help.svg

<svg xmlns="http://www.w3.org/2000/svg" width="32px" height="32px" viewBox="0 0 32 32" version="1.1">
    <title>linear-ele-other-bangzhu-help</title>
    <g id="linear-ele-other-bangzhu-help" stroke-width="1" fill-rule="evenodd">
        <path d="M16,2 C23.7319865,2 30,8.2680135 30,16 C30,23.7319865 23.7319865,30 16,30 C8.2680135,30 2,23.7319865 2,16 C2,8.2680135 8.2680135,2 16,2 Z M16,24 C14.1517985,24 12.449979,23.3732643 11.0954772,22.3207287 L8.25140247,25.1632607 C10.3420513,26.932926 13.0464114,28 16,28 C18.9535886,28 21.6579487,26.932926 23.7485975,25.1632607 L20.9045228,22.3207287 C19.550021,23.3732643 17.8482015,24 16,24 Z M25.1632607,8.25140247 L22.3207287,11.0954772 C23.3732643,12.449979 24,14.1517985 24,16 C24,17.8482015 23.3732643,19.550021 22.3207287,20.9045228 L25.1632607,23.7485975 C26.932926,21.6579487 28,18.9535886 28,16 C28,13.0464114 26.932926,10.3420513 25.1632607,8.25140247 Z M4,16 C4,18.9535886 5.067074,21.6579487 6.83673926,23.7485975 L9.67927125,20.9045228 C8.62673571,19.550021 8,17.8482015 8,16 C8,14.1517985 8.62673571,12.449979 9.67927125,11.0954772 L6.83673926,8.25140247 C5.067074,10.3420513 4,13.0464114 4,16 Z M16,10 C12.6862915,10 10,12.6862915 10,16 C10,19.3137085 12.6862915,22 16,22 C19.3137085,22 22,19.3137085 22,16 C22,12.6862915 19.3137085,10 16,10 Z M16,4 C13.0464114,4 10.3420513,5.067074 8.25140247,6.83673926 L11.0954772,9.67927125 C12.449979,8.62673571 14.1517985,8 16,8 C17.8482015,8 19.550021,8.62673571 20.9045228,9.67927125 L23.7485975,6.83673926 C21.6579487,5.067074 18.9535886,4 16,4 Z" id="&#24418;&#29366;" fill-rule="nonzero" />
    </g>
</svg>

<svg xmlns="http://www.w3.org/2000/svg" viewBox="0 0 32 32"><path fill="currentColor" d="M16 2c7.732 0 14 6.268 14 14s-6.268 14-14 14S2 23.732 2 16 8.268 2 16 2m0 22a7.965 7.965 0 0 1-4.905-1.68l-2.844 2.843A11.952 11.952 0 0 0 16 28c2.954 0 5.658-1.067 7.749-2.837l-2.844-2.842A7.965 7.965 0 0 1 16 24m9.163-15.749-2.842 2.844A7.965 7.965 0 0 1 24 16c0 1.848-.627 3.55-1.68 4.905l2.843 2.844A11.952 11.952 0 0 0 28 16c0-2.954-1.067-5.658-2.837-7.749M4 16c0 2.954 1.067 5.658 2.837 7.749l2.842-2.844A7.965 7.965 0 0 1 8 16c0-1.848.627-3.55 1.68-4.905L6.836 8.251A11.952 11.952 0 0 0 4 16m12-6a6 6 0 1 0 0 12 6 6 0 0 0 0-12m0-6a11.952 11.952 0 0 0-7.749 2.837l2.844 2.842A7.965 7.965 0 0 1 16 8c1.848 0 3.55.627 4.905 1.68l2.844-2.843A11.952 11.952 0 0 0 16 4"/></svg>
